assets/app/logo.svg

<svg width="510" height="150" viewBox="0 0 510 150" fill="none" xmlns="http://www.w3.org/2000/svg">
    <path
        d="M447.7 81.8142L446.47 85.0042L445.25 81.8142H444V86.3142H444.81V82.8042L446.15 86.3142H446.76L448.1 82.8042V86.3142H449V81.8142H447.7ZM439.44 81.8142V82.5242H440.82V86.3142H441.69V82.5242H443.06V81.8142H439.44ZM145.42 81.8242H131.27L134.27 89.0742L109.66 143.954H126.27L128.43 138.684L152.43 134.124L156.66 143.954H173.26L145.42 81.8242ZM134.52 123.934H134.44L141.1 107.684L147.1 121.544L134.52 123.934ZM238.31 5.25422V67.3842H222.42V35.7642L208.5 52.2942H207.34L193.5 35.7642V67.3842H177.5V5.25422H186.83L208 31.9742L229.64 5.25422H238.31ZM505 5.25422L498.48 19.8042H478.3V78.9042L462 81.8142V19.8142H441.06L444 27.0742V67.3842H427.73V41.7942L406.79 45.7942V67.3842H390.55V5.25422H406.79V31.5642L427.73 27.5642V5.25422H505ZM288.29 81.8142V96.3742H269.76V143.954H253.44V96.3742H237.91L231.38 81.8142H288.29ZM262.18 19.8142V29.5942H286.63L280.26 43.8042H262.18V67.3842H246V5.25422H288.27V19.8142H262.18ZM145.71 5.25422H131.56L134.56 12.5142L109.92 67.3842H126.54L128.7 62.0742L152.7 57.5142L157 67.3842H173.6L145.71 5.25422ZM134.82 47.3642H134.74L141.4 31.1242L147.35 44.9742L134.82 47.3642ZM82 19.8142V29.5942H106.46L100 43.8042H82V52.8042H108.12L101.54 67.3842H65.79V26.3142L68.71 19.8142H48V81.8142L31.68 78.8142V19.8142H11.53L5 5.25422H108.07V19.8142H82ZM382.12 37.7042V67.3842L368.29 64.9542C363.11 67.8942 357.94 69.0742 350.77 69.0742C332.52 69.0742 319.58 55.8742 319.58 37.0742C319.58 18.2742 332.52 5.07422 350.77 5.07422C366.39 5.07422 376.7 13.6042 380.46 26.6042H363.71C362.33 24.6385 360.479 23.0495 358.327 21.9823C356.175 20.915 353.79 20.4035 351.39 20.4942C342.26 20.4942 336.15 27.0442 336.15 37.0642C336.15 47.0842 342.26 53.6242 351.39 53.6242C358.12 53.6242 366.18 49.6242 366.18 37.6742H382.13L382.12 37.7042ZM232.52 121.834C229.72 135.834 219.32 145.044 202.18 144.924C183.89 144.794 170.94 131.704 170.94 112.924C170.94 94.1442 183.89 80.9242 202.18 80.9242C217.97 80.9242 228.35 89.6242 232.03 102.844H215.37C212.74 98.7542 208.32 96.3642 202.8 96.3642C193.65 96.3642 187.53 102.934 187.53 112.964C187.53 122.994 193.65 129.564 202.8 129.564C208.9 129.564 213.62 126.664 216.11 121.914L232.52 121.834ZM122.7 81.8142L116.18 96.3742H100.64V143.954H84.32V96.3742H65.79V81.8142H122.7ZM415.9 105.694C433.9 110.194 442.21 113.504 442.21 125.054C442.21 136.604 434.43 144.924 414.56 144.924C394.5 144.924 386.78 134.604 386.78 121.834H402.5C402.5 127.904 406.5 131.484 414.56 131.484C420.75 131.484 425.17 129.254 425.17 125.984C425.17 122.984 420.22 121.614 413.17 119.714C396.24 115.174 388.52 111.144 388.52 99.7142C388.52 90.5842 394.61 80.8142 414.59 80.8142C434.57 80.8142 440.25 90.5842 440.25 101.144H424.6C424.6 97.2342 422.25 94.1442 414.6 94.1442C406.95 94.1442 405.3 97.0442 405.3 99.4742C405.3 102.574 408.93 103.894 415.94 105.644M381.17 121.834C378.37 135.834 367.96 145.044 350.83 144.924C332.54 144.794 319.58 131.704 319.58 112.924C319.58 94.1442 332.58 80.9242 350.83 80.9242C366.62 80.9242 376.99 89.6242 380.68 102.844H364C361.36 98.7542 357 96.3642 351.42 96.3642C342.28 96.3642 336.16 102.934 336.16 112.964C336.16 122.994 342.28 129.564 351.42 129.564C357.52 129.564 362.25 126.664 364.73 121.914L381.17 121.834ZM296 5.25422H312.24V67.3842H296V5.25422ZM296 81.8242H312.24V143.954H296V81.8242Z"
        fill="url(#paint0_linear_56826_25873)" />
    <defs>
        <linearGradient id="paint0_linear_56826_25873" x1="5" y1="5.25462" x2="5" y2="144.545"
            gradientUnits="userSpaceOnUse">
            <stop stop-color="#F8B33F" />
            <stop offset="1" stop-color="#D78C3A" />
        </linearGradient>
    </defs>
</svg>

<svg width="510" height="150" fill="none" xmlns="http://www.w3.org/2000/svg">
    <path
        d="m447.7 81.814-1.23 3.19-1.22-3.19H444v4.5h.81v-3.51l1.34 3.51h.61l1.34-3.51v3.51h.9v-4.5h-1.3Zm-8.26 0v.71h1.38v3.79h.87v-3.79h1.37v-.71h-3.62Zm-294.02.01h-14.15l3 7.25-24.61 54.88h16.61l2.16-5.27 24-4.56 4.23 9.83h16.6l-27.84-62.13Zm-10.9 42.11h-.08l6.66-16.25 6 13.86-12.58 2.39ZM238.31 5.254v62.13h-15.89v-31.62l-13.92 16.53h-1.16l-13.84-16.53v31.62h-16V5.254h9.33L208 31.974l21.64-26.72h8.67Zm266.69 0-6.52 14.55H478.3v59.1l-16.3 2.91v-62h-20.94l2.94 7.26v40.31h-16.27v-25.59l-20.94 4v21.59h-16.24V5.254h16.24v26.31l20.94-4V5.254H505Zm-216.71 76.56v14.56h-18.53v47.58h-16.32v-47.58h-15.53l-6.53-14.56h56.91Zm-26.11-62v9.78h24.45l-6.37 14.21h-18.08v23.58H246V5.254h42.27v14.56h-26.09ZM145.71 5.254h-14.15l3 7.26-24.64 54.87h16.62l2.16-5.31 24-4.56 4.3 9.87h16.6l-27.89-62.13Zm-10.89 42.11h-.08l6.66-16.24 5.95 13.85-12.53 2.39ZM82 19.814v9.78h24.46L100 43.804H82v9h26.12l-6.58 14.58H65.79v-41.07l2.92-6.5H48v62l-16.32-3v-59H11.53L5 5.254h103.07v14.56H82Zm300.12 17.89v29.68l-13.83-2.43c-5.18 2.94-10.35 4.12-17.52 4.12-18.25 0-31.19-13.2-31.19-32s12.94-32 31.19-32c15.62 0 25.93 8.53 29.69 21.53h-16.75a14.387 14.387 0 0 0-12.32-6.11c-9.13 0-15.24 6.55-15.24 16.57s6.11 16.56 15.24 16.56c6.73 0 14.79-4 14.79-15.95h15.95l-.01.03Zm-149.6 84.13c-2.8 14-13.2 23.21-30.34 23.09-18.29-.13-31.24-13.22-31.24-32s12.95-32 31.24-32c15.79 0 26.17 8.7 29.85 21.92h-16.66c-2.63-4.09-7.05-6.48-12.57-6.48-9.15 0-15.27 6.57-15.27 16.6 0 10.03 6.12 16.6 15.27 16.6 6.1 0 10.82-2.9 13.31-7.65l16.41-.08ZM122.7 81.814l-6.52 14.56h-15.54v47.58H84.32v-47.58H65.79v-14.56h56.91Zm293.2 23.88c18 4.5 26.31 7.81 26.31 19.36s-7.78 19.87-27.65 19.87c-20.06 0-27.78-10.32-27.78-23.09h15.72c0 6.07 4 9.65 12.06 9.65 6.19 0 10.61-2.23 10.61-5.5 0-3-4.95-4.37-12-6.27-16.93-4.54-24.65-8.57-24.65-20 0-9.13 6.09-18.9 26.07-18.9s25.66 9.77 25.66 20.33H424.6c0-3.91-2.35-7-10-7s-9.3 2.9-9.3 5.33c0 3.1 3.63 4.42 10.64 6.17m-34.77 16.19c-2.8 14-13.21 23.21-30.34 23.09-18.29-.13-31.25-13.22-31.25-32s13-32 31.25-32c15.79 0 26.16 8.7 29.85 21.92H364c-2.64-4.09-7-6.48-12.58-6.48-9.14 0-15.26 6.57-15.26 16.6 0 10.03 6.12 16.6 15.26 16.6 6.1 0 10.83-2.9 13.31-7.65l16.44-.08ZM296 5.254h16.24v62.13H296V5.254Zm0 76.57h16.24v62.13H296v-62.13Z"
        fill="url(#a)" />
    <defs>
        <linearGradient id="a" x1="5" y1="5.255" x2="5" y2="144.545" gradientUnits="userSpaceOnUse">
            <stop stop-color="#F8B33F" />
            <stop offset="1" stop-color="#D78C3A" />
        </linearGradient>
    </defs>
</svg>
